bernoullicharts/arctan_x_two-coin_special_case__bits.svg

<?xml version="1.0" encoding="utf-8" standalone="no"?>
<!DOCTYPE svg PUBLIC "-//W3C//DTD SVG 1.1//EN"
  "http://www.w3.org/Graphics/SVG/1.1/DTD/svg11.dtd">
<!-- Created with matplotlib (https://matplotlib.org/) -->
<svg height="345.6pt" version="1.1" viewBox="0 0 460.8 345.6" width="460.8pt" xmlns="http://www.w3.org/2000/svg" xmlns:xlink="http://www.w3.org/1999/xlink">
 <defs>
  <style type="text/css">
*{stroke-linecap:butt;stroke-linejoin:round;}
  </style>
 </defs>
 <g id="figure_1">
  <g id="patch_1">
   <path d="M 0 345.6 
L 460.8 345.6 
L 460.8 0 
L 0 0 
z
" style="fill:#ffffff;"/>
  </g>
  <g id="axes_1">
   <g id="patch_2">
    <path d="M 57.6 307.584 
L 414.72 307.584 
L 414.72 41.472 
L 57.6 41.472 
z
" style="fill:#ffffff;"/>
   </g>
   <g id="matplotlib.axis_1">
    <g id="xtick_1">
     <g id="line2d_1">
      <defs>
       <path d="M 0 0 
L 0 3.5 
" id="m278b1018bb" style="stroke:#000000;stroke-width:0.8;"/>
      </defs>
      <g>
       <use style="stroke:#000000;stroke-width:0.8;" x="73.800255" xlink:href="#m278b1018bb" y="307.584"/>
      </g>
     </g>
     <g id="text_1">
      <text style="font-family:DejaVu Sans;font-size:10px;font-style:normal;font-weight:normal;text-anchor:middle;" transform="rotate(-0, 73.800255, 322.182437)" x="73.800255" y="322.182437">0.0</text>
     </g>
    </g>
    <g id="xtick_2">
     <g id="line2d_2">
      <g>
       <use style="stroke:#000000;stroke-width:0.8;" x="138.744153" xlink:href="#m278b1018bb" y="307.584"/>
      </g>
     </g>
     <g id="text_2">
      <text style="font-family:DejaVu Sans;font-size:10px;font-style:normal;font-weight:normal;text-anchor:middle;" transform="rotate(-0, 138.744153, 322.182437)" x="138.744153" y="322.182437">0.2</text>
     </g>
    </g>
    <g id="xtick_3">
     <g id="line2d_3">
      <g>
       <use style="stroke:#000000;stroke-width:0.8;" x="203.688051" xlink:href="#m278b1018bb" y="307.584"/>
      </g>
     </g>
     <g id="text_3">
      <text style="font-family:DejaVu Sans;font-size:10px;font-style:normal;font-weight:normal;text-anchor:middle;" transform="rotate(-0, 203.688051, 322.182437)" x="203.688051" y="322.182437">0.4</text>
     </g>
    </g>
    <g id="xtick_4">
     <g id="line2d_4">
      <g>
       <use style="stroke:#000000;stroke-width:0.8;" x="268.631949" xlink:href="#m278b1018bb" y="307.584"/>
      </g>
     </g>
     <g id="text_4">
      <text style="font-family:DejaVu Sans;font-size:10px;font-style:normal;font-weight:normal;text-anchor:middle;" transform="rotate(-0, 268.631949, 322.182437)" x="268.631949" y="322.182437">0.6</text>
     </g>
    </g>
    <g id="xtick_5">
     <g id="line2d_5">
      <g>
       <use style="stroke:#000000;stroke-width:0.8;" x="333.575847" xlink:href="#m278b1018bb" y="307.584"/>
      </g>
     </g>
     <g id="text_5">
      <text style="font-family:DejaVu Sans;font-size:10px;font-style:normal;font-weight:normal;text-anchor:middle;" transform="rotate(-0, 333.575847, 322.182437)" x="333.575847" y="322.182437">0.8</text>
     </g>
    </g>
    <g id="xtick_6">
     <g id="line2d_6">
      <g>
       <use style="stroke:#000000;stroke-width:0.8;" x="398.519745" xlink:href="#m278b1018bb" y="307.584"/>
      </g>
     </g>
     <g id="text_6">
      <text style="font-family:DejaVu Sans;font-size:10px;font-style:normal;font-weight:normal;text-anchor:middle;" transform="rotate(-0, 398.519745, 322.182437)" x="398.519745" y="322.182437">1.0</text>
     </g>
    </g>
    <g id="text_7">
     <text style="font-family:DejaVu Sans;font-size:10px;font-style:normal;font-weight:normal;text-anchor:middle;" transform="rotate(-0, 236.16, 335.860562)" x="236.16" y="335.860562">Probability</text>
    </g>
   </g>
   <g id="matplotlib.axis_2">
    <g id="ytick_1">
     <g id="line2d_7">
      <defs>
       <path d="M 0 0 
L -3.5 0 
" id="m1950b95a57" style="stroke:#000000;stroke-width:0.8;"/>
      </defs>
      <g>
       <use style="stroke:#000000;stroke-width:0.8;" x="57.6" xlink:href="#m1950b95a57" y="297.885405"/>
      </g>
     </g>
     <g id="text_8">
      <text style="font-family:DejaVu Sans;font-size:10px;font-style:normal;font-weight:normal;text-anchor:end;" transform="rotate(-0, 50.6, 301.684624)" x="50.6" y="301.684624">7.0</text>
     </g>
    </g>
    <g id="ytick_2">
     <g id="line2d_8">
      <g>
       <use style="stroke:#000000;stroke-width:0.8;" x="57.6" xlink:href="#m1950b95a57" y="243.398919"/>
      </g>
     </g>
     <g id="text_9">
      <text style="font-family:DejaVu Sans;font-size:10px;font-style:normal;font-weight:normal;text-anchor:end;" transform="rotate(-0, 50.6, 247.198138)" x="50.6" y="247.198138">7.5</text>
     </g>
    </g>
    <g id="ytick_3">
     <g id="line2d_9">
      <g>
       <use style="stroke:#000000;stroke-width:0.8;" x="57.6" xlink:href="#m1950b95a57" y="188.912432"/>
      </g>
     </g>
     <g id="text_10">
      <text style="font-family:DejaVu Sans;font-size:10px;font-style:normal;font-weight:normal;text-anchor:end;" transform="rotate(-0, 50.6, 192.711651)" x="50.6" y="192.711651">8.0</text>
     </g>
    </g>
    <g id="ytick_4">
     <g id="line2d_10">
      <g>
       <use style="stroke:#000000;stroke-width:0.8;" x="57.6" xlink:href="#m1950b95a57" y="134.425946"/>
      </g>
     </g>
     <g id="text_11">
      <text style="font-family:DejaVu Sans;font-size:10px;font-style:normal;font-weight:normal;text-anchor:end;" transform="rotate(-0, 50.6, 138.225165)" x="50.6" y="138.225165">8.5</text>
     </g>
    </g>
    <g id="ytick_5">
     <g id="line2d_11">
      <g>
       <use style="stroke:#000000;stroke-width:0.8;" x="57.6" xlink:href="#m1950b95a57" y="79.939459"/>
      </g>
     </g>
     <g id="text_12">
      <text style="font-family:DejaVu Sans;font-size:10px;font-style:normal;font-weight:normal;text-anchor:end;" transform="rotate(-0, 50.6, 83.738678)" x="50.6" y="83.738678">9.0</text>
     </g>
    </g>
    <g id="text_13">
     <text style="font-family:DejaVu Sans;font-size:10px;font-style:normal;font-weight:normal;text-anchor:middle;" transform="rotate(-90, 28.617187, 174.528)" x="28.617187" y="174.528">Average Bits Consumed Per Call</text>
    </g>
   </g>
   <g id="line2d_12">
    <path clip-path="url(#p08639c1fd0)" d="M 73.832727 116.99027 
L 77.112066 139.438703 
L 80.391405 147.720649 
L 83.670744 109.144216 
L 86.950083 205.476324 
L 90.229421 140.092541 
L 93.50876 101.734054 
L 96.788099 53.568 
L 100.067438 129.195243 
L 103.346777 175.399784 
L 106.626116 124.618378 
L 109.905455 147.938595 
L 113.184793 137.259243 
L 116.464132 152.515459 
L 119.743471 100.86227 
L 123.02281 101.734054 
L 126.302149 87.131676 
L 129.581488 131.374703 
L 132.860826 93.888 
L 136.140165 177.143351 
L 139.419504 68.170378 
L 142.698843 94.541838 
L 145.978182 77.106162 
L 149.257521 217.681297 
L 152.53686 105.003243 
L 155.816198 151.207784 
L 159.095537 155.784649 
L 162.374876 153.823135 
L 165.654215 95.849514 
L 168.933554 133.11827 
L 172.212893 101.734054 
L 175.492231 126.579892 
L 178.77157 54.439784 
L 182.050909 59.452541 
L 185.330248 207.437838 
L 188.609587 123.964541 
L 191.888926 95.849514 
L 195.168264 121.785081 
L 198.447603 98.028973 
L 201.726942 142.489946 
L 205.006281 140.964324 
L 208.28562 257.347459 
L 211.564959 193.053405 
L 214.844298 178.668973 
L 218.123636 100.644324 
L 221.402975 143.36173 
L 224.682314 115.028757 
L 227.961653 158.4 
L 231.240992 149.900108 
L 234.520331 205.912216 
L 237.799669 125.272216 
L 241.079008 120.259459 
L 244.358347 170.387027 
L 247.637686 194.361081 
L 250.917025 227.924757 
L 254.196364 184.335568 
L 257.475702 134.861838 
L 260.755041 150.336 
L 264.03438 128.541405 
L 267.313719 232.719568 
L 270.593058 162.540973 
L 273.872397 196.976432 
L 277.151736 172.784432 
L 280.431074 140.964324 
L 283.710413 151.207784 
L 286.989752 139.874595 
L 290.269091 205.258378 
L 293.54843 202.643027 
L 296.827769 213.75827 
L 300.107107 170.604973 
L 303.386446 190.220108 
L 306.665785 200.245622 
L 309.945124 218.117189 
L 313.224463 223.347892 
L 316.503802 235.334919 
L 319.78314 252.770595 
L 323.062479 155.348757 
L 326.341818 265.629405 
L 329.621157 204.604541 
L 332.900496 241.655351 
L 336.179835 276.962595 
L 339.459174 261.488432 
L 342.738512 277.180541 
L 346.017851 283.500973 
L 349.29719 216.591568 
L 352.576529 264.539676 
L 355.855868 218.117189 
L 359.135207 217.245405 
L 362.414545 220.078703 
L 365.693884 228.578595 
L 368.973223 222.476108 
L 372.252562 242.527135 
L 375.531901 290.693189 
L 378.81124 265.193514 
L 382.090579 274.783135 
L 385.369917 247.539892 
L 388.649256 270.860108 
L 391.928595 295.488 
L 395.207934 259.962811 
L 398.487273 282.847135 
" style="fill:none;stroke:#1f77b4;stroke-linecap:square;stroke-width:1.5;"/>
   </g>
   <g id="patch_3">
    <path d="M 57.6 307.584 
L 57.6 41.472 
" style="fill:none;stroke:#000000;stroke-linecap:square;stroke-linejoin:miter;stroke-width:0.8;"/>
   </g>
   <g id="patch_4">
    <path d="M 414.72 307.584 
L 414.72 41.472 
" style="fill:none;stroke:#000000;stroke-linecap:square;stroke-linejoin:miter;stroke-width:0.8;"/>
   </g>
   <g id="patch_5">
    <path d="M 57.6 307.584 
L 414.72 307.584 
" style="fill:none;stroke:#000000;stroke-linecap:square;stroke-linejoin:miter;stroke-width:0.8;"/>
   </g>
   <g id="patch_6">
    <path d="M 57.6 41.472 
L 414.72 41.472 
" style="fill:none;stroke:#000000;stroke-linecap:square;stroke-linejoin:miter;stroke-width:0.8;"/>
   </g>
   <g id="text_14">
    <text style="font-family:DejaVu Sans;font-size:12px;font-style:normal;font-weight:normal;text-anchor:middle;" transform="rotate(-0, 236.16, 35.472)" x="236.16" y="35.472">Avg. Bits Consumed by arctan(x) (Two-Coin Special Case) Algorithm</text>
   </g>
   <g id="legend_1">
    <g id="patch_7">
     <path d="M 207.48875 64.150125 
L 407.72 64.150125 
Q 409.72 64.150125 409.72 62.150125 
L 409.72 48.472 
Q 409.72 46.472 407.72 46.472 
L 207.48875 46.472 
Q 205.48875 46.472 205.48875 48.472 
L 205.48875 62.150125 
Q 205.48875 64.150125 207.48875 64.150125 
z
" style="fill:#ffffff;opacity:0.8;stroke:#cccccc;stroke-linejoin:miter;"/>
    </g>
    <g id="line2d_13">
     <path d="M 209.48875 54.570438 
L 229.48875 54.570438 
" style="fill:none;stroke:#1f77b4;stroke-linecap:square;stroke-width:1.5;"/>
    </g>
    <g id="line2d_14"/>
    <g id="text_15">
     <text style="font-family:DejaVu Sans;font-size:10px;font-style:normal;font-weight:normal;text-anchor:start;" transform="rotate(-0, 237.48875, 58.070438)" x="237.48875" y="58.070438">arctan(x) (Two-Coin Special Case)</text>
    </g>
   </g>
  </g>
 </g>
 <defs>
  <clipPath id="p08639c1fd0">
   <rect height="266.112" width="357.12" x="57.6" y="41.472"/>
  </clipPath>
 </defs>
</svg>

<svg height="460.8" viewBox="0 0 460.8 345.6" width="614.4" xmlns="http://www.w3.org/2000/svg" xmlns:xlink="http://www.w3.org/1999/xlink"><defs><style>*{stroke-linecap:butt;stroke-linejoin:round}</style></defs><g id="figure_1"><path d="M0 345.6h460.8V0H0z" fill="#fff" id="patch_1"/><g id="axes_1"><path d="M57.6 307.584h357.12V41.472H57.6z" fill="#fff" id="patch_2"/><g id="matplotlib.axis_1"><g id="xtick_1"><g id="line2d_1"><defs><path d="M0 0v3.5" id="m278b1018bb" stroke="#000" stroke-width=".8"/></defs><use x="73.8" xlink:href="#m278b1018bb" y="307.584" stroke="#000" stroke-width=".8"/></g><text x="73.8" y="322.182" font-family="DejaVu Sans" font-size="10" font-weight="400" text-anchor="middle" id="text_1">0.0</text></g><g id="xtick_2"><use x="138.744" xlink:href="#m278b1018bb" y="307.584" stroke="#000" stroke-width=".8" id="line2d_2"/><text x="138.744" y="322.182" font-family="DejaVu Sans" font-size="10" font-weight="400" text-anchor="middle" id="text_2">0.2</text></g><g id="xtick_3"><use x="203.688" xlink:href="#m278b1018bb" y="307.584" stroke="#000" stroke-width=".8" id="line2d_3"/><text x="203.688" y="322.182" font-family="DejaVu Sans" font-size="10" font-weight="400" text-anchor="middle" id="text_3">0.4</text></g><g id="xtick_4"><use x="268.632" xlink:href="#m278b1018bb" y="307.584" stroke="#000" stroke-width=".8" id="line2d_4"/><text x="268.632" y="322.182" font-family="DejaVu Sans" font-size="10" font-weight="400" text-anchor="middle" id="text_4">0.6</text></g><g id="xtick_5"><use x="333.576" xlink:href="#m278b1018bb" y="307.584" stroke="#000" stroke-width=".8" id="line2d_5"/><text x="333.576" y="322.182" font-family="DejaVu Sans" font-size="10" font-weight="400" text-anchor="middle" id="text_5">0.8</text></g><g id="xtick_6"><use x="398.52" xlink:href="#m278b1018bb" y="307.584" stroke="#000" stroke-width=".8" id="line2d_6"/><text x="398.52" y="322.182" font-family="DejaVu Sans" font-size="10" font-weight="400" text-anchor="middle" id="text_6">1.0</text></g><text x="236.16" y="335.861" font-family="DejaVu Sans" font-size="10" font-weight="400" text-anchor="middle" id="text_7">Probability</text></g><g id="matplotlib.axis_2"><g id="ytick_1"><g id="line2d_7"><defs><path d="M0 0h-3.5" id="m1950b95a57" stroke="#000" stroke-width=".8"/></defs><use x="57.6" xlink:href="#m1950b95a57" y="297.885" stroke="#000" stroke-width=".8"/></g><text x="50.6" y="301.685" font-family="DejaVu Sans" font-size="10" font-weight="400" text-anchor="end" id="text_8">7.0</text></g><g id="ytick_2"><use x="57.6" xlink:href="#m1950b95a57" y="243.399" stroke="#000" stroke-width=".8" id="line2d_8"/><text x="50.6" y="247.198" font-family="DejaVu Sans" font-size="10" font-weight="400" text-anchor="end" id="text_9">7.5</text></g><g id="ytick_3"><use x="57.6" xlink:href="#m1950b95a57" y="188.912" stroke="#000" stroke-width=".8" id="line2d_9"/><text x="50.6" y="192.712" font-family="DejaVu Sans" font-size="10" font-weight="400" text-anchor="end" id="text_10">8.0</text></g><g id="ytick_4"><use x="57.6" xlink:href="#m1950b95a57" y="134.426" stroke="#000" stroke-width=".8" id="line2d_10"/><text x="50.6" y="138.225" font-family="DejaVu Sans" font-size="10" font-weight="400" text-anchor="end" id="text_11">8.5</text></g><g id="ytick_5"><use x="57.6" xlink:href="#m1950b95a57" y="79.939" stroke="#000" stroke-width=".8" id="line2d_11"/><text x="50.6" y="83.739" font-family="DejaVu Sans" font-size="10" font-weight="400" text-anchor="end" id="text_12">9.0</text></g><text transform="rotate(-90 28.617 174.528)" x="28.617" y="174.528" font-family="DejaVu Sans" font-size="10" font-weight="400" text-anchor="middle" id="text_13">Average Bits Consumed Per Call</text></g><path clip-path="url(#p08639c1fd0)" d="M73.833 116.99l3.28 22.449 3.278 8.282 3.28-38.577 3.28 96.332 3.278-65.383 3.28-38.359 3.28-48.166 3.278 75.627 3.28 46.205 3.28-50.782 3.278 23.32 3.28-10.679 3.28 15.256 3.278-51.653 3.28.872 3.28-14.602 3.278 44.243 3.28-37.487 3.28 83.255L139.42 68.17l3.279 26.372 3.28-17.436 3.279 140.575 3.279-112.678 3.28 46.205 3.279 4.577 3.279-1.962 3.28-57.973 3.279 37.268 3.279-31.384 3.28 24.846 3.279-72.14 3.279 5.013 3.28 147.985 3.279-83.473 3.279-28.115 3.28 25.935 3.279-23.756 3.279 44.46 3.28-1.525 3.279 116.383 3.279-64.294 3.28-14.384 3.279-78.025 3.279 42.718 3.28-28.333 3.279 43.371 3.279-8.5 3.28 56.012 3.279-80.64 3.279-5.013 3.28 50.128 3.279 23.974 3.279 33.564 3.28-43.59 3.279-49.473 3.279 15.474 3.28-21.795 3.279 104.179 3.28-70.179 3.278 34.435 3.28-24.192 3.28-31.82 3.278 10.244 3.28-11.333 3.28 65.383 3.278-2.615 3.28 11.115 3.28-43.153 3.278 19.615 3.28 10.026 3.28 17.871 3.278 5.23 3.28 11.988 3.28 17.436 3.278-97.422 3.28 110.28 3.28-61.024 3.278 37.05 3.28 35.308 3.28-15.475 3.279 15.693 3.279 6.32 3.28-66.91 3.279 47.949 3.279-46.423 3.28-.872 3.279 2.834 3.279 8.5 3.28-6.103 3.279 20.051 3.279 48.166 3.28-25.5 3.279 9.59 3.279-27.243 3.28 23.32 3.279 24.628 3.279-35.525 3.28 22.884" fill="none" stroke="#1f77b4" stroke-linecap="square" stroke-width="1.5" id="line2d_12"/><path d="M57.6 307.584V41.472" fill="none" stroke="#000" stroke-linecap="square" stroke-width=".8" id="patch_3"/><path d="M414.72 307.584V41.472" fill="none" stroke="#000" stroke-linecap="square" stroke-width=".8" id="patch_4"/><path d="M57.6 307.584h357.12" fill="none" stroke="#000" stroke-linecap="square" stroke-width=".8" id="patch_5"/><path d="M57.6 41.472h357.12" fill="none" stroke="#000" stroke-linecap="square" stroke-width=".8" id="patch_6"/><text x="236.16" y="35.472" font-family="DejaVu Sans" font-size="12" font-weight="400" text-anchor="middle" id="text_14">Avg. Bits Consumed by arctan(x) (Two-Coin Special Case) Algorithm</text><g id="legend_1"><path d="M207.489 64.15H407.72q2 0 2-2V48.472q0-2-2-2H207.489q-2 0-2 2V62.15q0 2 2 2z" fill="#fff" opacity=".8" stroke="#ccc" id="patch_7"/><path d="M209.489 54.57h20" fill="none" stroke="#1f77b4" stroke-linecap="square" stroke-width="1.5" id="line2d_13"/><text x="237.489" y="58.07" font-family="DejaVu Sans" font-size="10" font-weight="400" id="text_15">arctan(x) (Two-Coin Special Case)</text></g></g></g><defs><clipPath id="p08639c1fd0"><path d="M57.6 41.472h357.12v266.112H57.6z"/></clipPath></defs></svg>
